report_00007_2020-12-11T15:55:29.892Z/network-rtt/comparison/line/4_vs_5.svg

<svg width="640" height="500" xmlns="http://www.w3.org/2000/svg" xmlns:xlink="http://www.w3.org/1999/xlink"><path fill="#fff" d="M0 0h640v500H0z"/><defs><path id="d" stroke-width=".222" stroke="currentColor" d="M-1-1h2v2h-2z"/><path id="b" stroke-width=".222" stroke="currentColor" d="M0-1.33l-1.33 2h2.66z"/><path id="f" stroke-width=".222" stroke="currentColor" d="M0 1.33L1.265.411.782-1.067l-1.564-.009-.483 1.487z"/><use xlink:href="#b" id="c" stroke="currentColor" transform="rotate(180)"/><use xlink:href="#d" id="e" stroke="currentColor" transform="rotate(45)"/><circle id="a" stroke-width=".222" stroke="currentColor" cx="0" cy="0" r="1"/></defs><g fill="none" color="#000" stroke="currentColor"><path stroke="#000" d="M62.2 419.2h9m543.8 0h-9"/><text transform="translate(53.9 423.1)" stroke="none" fill="#000" font-family="Arial" font-size="12" text-anchor="end"><tspan>0.05</tspan></text></g><g fill="none" color="#000" stroke="currentColor"><path stroke="#000" d="M62.2 335.5h9m543.8 0h-9"/><text transform="translate(53.9 339.4)" stroke="none" fill="#000" font-family="Arial" font-size="12" text-anchor="end"><tspan>0.1</tspan></text></g><g fill="none" color="#000" stroke="currentColor"><path stroke="#000" d="M62.2 251.9h9m543.8 0h-9"/><text transform="translate(53.9 255.8)" stroke="none" fill="#000" font-family="Arial" font-size="12" text-anchor="end"><tspan>0.15</tspan></text></g><g fill="none" color="#000" stroke="currentColor"><path stroke="#000" d="M62.2 168.2h9m543.8 0h-9"/><text transform="translate(53.9 172.1)" stroke="none" fill="#000" font-family="Arial" font-size="12" text-anchor="end"><tspan>0.2</tspan></text></g><g fill="none" color="#000" stroke="currentColor"><path stroke="#000" d="M62.2 84.6h9m543.8 0h-9"/><text transform="translate(53.9 88.5)" stroke="none" fill="#000" font-family="Arial" font-size="12" text-anchor="end"><tspan>0.25</tspan></text></g><g fill="none" color="#000" stroke="currentColor"><path stroke="#000" d="M62.2 446v-9m0-418.9v9"/><text transform="translate(62.2 467.9)" stroke="none" fill="#000" font-family="Arial" font-size="12" text-anchor="middle"><tspan>0</tspan></text></g><g fill="none" color="#000" stroke="currentColor"><path stroke="#000" d="M118 446v-9m0-418.9v9"/><text transform="translate(118 467.9)" stroke="none" fill="#000" font-family="Arial" font-size="12" text-anchor="middle"><tspan>10</tspan></text></g><g fill="none" color="#000" stroke="currentColor"><path stroke="#000" d="M173.9 446v-9m0-418.9v9"/><text transform="translate(173.9 467.9)" stroke="none" fill="#000" font-family="Arial" font-size="12" text-anchor="middle"><tspan>20</tspan></text></g><g fill="none" color="#000" stroke="currentColor"><path stroke="#000" d="M229.7 446v-9m0-418.9v9"/><text transform="translate(229.7 467.9)" stroke="none" fill="#000" font-family="Arial" font-size="12" text-anchor="middle"><tspan>30</tspan></text></g><g fill="none" color="#000" stroke="currentColor"><path stroke="#000" d="M285.6 446v-9m0-418.9v9"/><text transform="translate(285.6 467.9)" stroke="none" fill="#000" font-family="Arial" font-size="12" text-anchor="middle"><tspan>40</tspan></text></g><g fill="none" color="#000" stroke="currentColor"><path stroke="#000" d="M341.4 446v-9m0-418.9v9"/><text transform="translate(341.4 467.9)" stroke="none" fill="#000" font-family="Arial" font-size="12" text-anchor="middle"><tspan>50</tspan></text></g><g fill="none" color="#000" stroke="currentColor"><path stroke="#000" d="M397.2 446v-9m0-418.9v9"/><text transform="translate(397.2 467.9)" stroke="none" fill="#000" font-family="Arial" font-size="12" text-anchor="middle"><tspan>60</tspan></text></g><g fill="none" color="#000" stroke="currentColor"><path stroke="#000" d="M453.1 446v-9m0-418.9v9"/><text transform="translate(453.1 467.9)" stroke="none" fill="#000" font-family="Arial" font-size="12" text-anchor="middle"><tspan>70</tspan></text></g><g fill="none" color="#000" stroke="currentColor"><path stroke="#000" d="M508.9 446v-9m0-418.9v9"/><text transform="translate(508.9 467.9)" stroke="none" fill="#000" font-family="Arial" font-size="12" text-anchor="middle"><tspan>80</tspan></text></g><g fill="none" color="#000" stroke="currentColor"><path stroke="#000" d="M564.7 446v-9m0-418.9v9"/><text transform="translate(564.7 467.9)" stroke="none" fill="#000" font-family="Arial" font-size="12" text-anchor="middle"><tspan>90</tspan></text></g><path stroke="#000" d="M62.2 18.1V446H615V18.1H62.2z" fill="none" color="#000"/><text transform="translate(279.8 485.9)" stroke="none" fill="#000" font-family="Arial" font-size="12" text-anchor="end" color="#000"><tspan>pages+cached+noadtech</tspan></text><path stroke="#9400D3" d="M288.1 482h42.2M62.2 366.3l5.6 34.2 5.6 6.7 5.6-19.3 5.5 9.5 5.6-28.4 5.6 31 5.6 24.2 5.6-8 5.6-35.3 5.5-5.5 5.6 19.5 5.6 8.1 5.6-28.6 5.6 15 5.6-42.5 5.5-12.7 5.6 64.3 5.6-33.3 5.6 40.1 5.6-17.1 5.6 16.1 5.5-83 5.6 55.4 5.6-47.2 5.6 7.5 5.6 65.5 5.6-9.2 5.5-4.7 5.6-63.1 5.6 61.6 5.6 5.8 5.6-13.7 5.6-.2 5.6 6.4 5.5-18.7 5.6 22 5.6-6.8 5.6 39.6 5.6-12.8 5.6-17.3 5.5 16.1 5.6-21.6 5.6-95.2 5.6 118.3 5.6 2.7 5.6-11.4 5.5-22.1 5.6-10.4 5.6 21.1 5.6-54.9 5.6 66 5.6-7.6 5.5-94.5 5.6 130.3 5.6-12.2 5.6-27.1 5.6-26.9 5.6 33.3 5.5-1.2 5.6 42.7 5.6-26.8 5.6-165.7 5.6 171.1 5.6-15.4 5.5-146.4 5.6 160.6 5.6-8.1 5.6-14 5.6 30.8 5.6-36 5.6-.5 5.5 6.5 5.6-168.8 5.6 170.2 5.6-22.5 5.6 3.2 5.6 16.4 5.5-51.3 5.6 52.5 5.6-19.4 5.6-24.1 5.6 48.3 5.6-21 5.5 28.2 5.6-161.3 5.6 113.7 5.6 35.3 5.6-8.2 5.6 19.5 5.5-15.5 5.6-15.8 5.6 28.5 5.6 4.7 5.6-2.4 5.6-161.1 5.5 105.3 5.6-70.8 5.6 121.6 5.6 11.2" fill="none" color="#000"/><text transform="translate(529.5 485.9)" stroke="none" fill="#000" font-family="Arial" font-size="12" text-anchor="end" color="#000"><tspan>pages+cached+noexternal</tspan></text><path stroke="#009E73" d="M537.8 482H580M62.2 395.6l5.6-39 5.6-109.7L79 397.6l5.5-23.2 5.6 4.5 5.6-196.6 5.6 253.8 5.6-16.4 5.6-43.8 5.5 61.9 5.6-69.3 5.6 28.1 5.6-12.2 5.6 5.7 5.6-10.9 5.5 39.2 5.6-23.8 5.6 18.9 5.6-53.9 5.6 19.9 5.6-24.4 5.5 34.8 5.6-27.8 5.6 31.3 5.6-11.5 5.6-11.6 5.6 28.8 5.5-5.2 5.6-12.2 5.6 8.4 5.6-13.6 5.6-100.7 5.6-18.6 5.6 145.3 5.5-11.9 5.6 28.3 5.6-34.5 5.6 18.7 5.6-13.5 5.6-96.9 5.5 87.7 5.6 4.5 5.6-358.6 5.6 390.6 5.6-23.6 5.6-11.1 5.5 18.8 5.6-23.8 5.6 19.1 5.6 15.9 5.6-20.3 5.6 8.4 5.5-16.9 5.6 9.7 5.6 21.6 5.6-170.5 5.6 143 5.6 2 5.5 17.4 5.6-12.7 5.6-1.1 5.6 5.8 5.6-8.8 5.6 11.8 5.5 14.8 5.6-113 5.6 99.9 5.6-21.7 5.6 10.7 5.6-8.1 5.6 12.1 5.5.5 5.6 6.5 5.6-10.7 5.6-44.2 5.6-79 5.6 146.6 5.5-45.3 5.6 47.5 5.6-32 5.6-195.7 5.6 155.2 5.6 70.5 5.5-29.1 5.6-4.4 5.6 4.4 5.6-9.7 5.6 2.5 5.6 7.2 5.5-8.6 5.6 15.9 5.6 9.9 5.6 6.4 5.6-192.1 5.6 133.5 5.5 41.3 5.6 13.6 5.6-26.6 5.6-3.5" fill="none" color="#000"/><g fill="none" color="#000" stroke="currentColor"><path stroke="#000" d="M62.2 18.1V446H615V18.1H62.2z"/></g></svg>

<?xml version="1.0" encoding="utf-8"  standalone="no"?>
<svg 
 width="640" height="500"
 viewBox="0 0 640 500"
 xmlns="http://www.w3.org/2000/svg"
 xmlns:xlink="http://www.w3.org/1999/xlink"
>

<title>Gnuplot</title>
<desc>Produced by GNUPLOT 5.4 patchlevel 0 </desc>

<g id="gnuplot_canvas">

<rect x="0" y="0" width="640" height="500" fill="#ffffff"/>
<defs>

	<circle id='gpDot' r='0.5' stroke-width='0.5' stroke='currentColor'/>
	<path id='gpPt0' stroke-width='0.222' stroke='currentColor' d='M-1,0 h2 M0,-1 v2'/>
	<path id='gpPt1' stroke-width='0.222' stroke='currentColor' d='M-1,-1 L1,1 M1,-1 L-1,1'/>
	<path id='gpPt2' stroke-width='0.222' stroke='currentColor' d='M-1,0 L1,0 M0,-1 L0,1 M-1,-1 L1,1 M-1,1 L1,-1'/>
	<rect id='gpPt3' stroke-width='0.222' stroke='currentColor' x='-1' y='-1' width='2' height='2'/>
	<rect id='gpPt4' stroke-width='0.222' stroke='currentColor' fill='currentColor' x='-1' y='-1' width='2' height='2'/>
	<circle id='gpPt5' stroke-width='0.222' stroke='currentColor' cx='0' cy='0' r='1'/>
	<use xlink:href='#gpPt5' id='gpPt6' fill='currentColor' stroke='none'/>
	<path id='gpPt7' stroke-width='0.222' stroke='currentColor' d='M0,-1.33 L-1.33,0.67 L1.33,0.67 z'/>
	<use xlink:href='#gpPt7' id='gpPt8' fill='currentColor' stroke='none'/>
	<use xlink:href='#gpPt7' id='gpPt9' stroke='currentColor' transform='rotate(180)'/>
	<use xlink:href='#gpPt9' id='gpPt10' fill='currentColor' stroke='none'/>
	<use xlink:href='#gpPt3' id='gpPt11' stroke='currentColor' transform='rotate(45)'/>
	<use xlink:href='#gpPt11' id='gpPt12' fill='currentColor' stroke='none'/>
	<path id='gpPt13' stroke-width='0.222' stroke='currentColor' d='M0,1.330 L1.265,0.411 L0.782,-1.067 L-0.782,-1.076 L-1.265,0.411 z'/>
	<use xlink:href='#gpPt13' id='gpPt14' fill='currentColor' stroke='none'/>
	<filter id='textbox' filterUnits='objectBoundingBox' x='0' y='0' height='1' width='1'>
	  <feFlood flood-color='#FFFFFF' flood-opacity='1' result='bgnd'/>
	  <feComposite in='SourceGraphic' in2='bgnd' operator='atop'/>
	</filter>
	<filter id='greybox' filterUnits='objectBoundingBox' x='0' y='0' height='1' width='1'>
	  <feFlood flood-color='lightgrey' flood-opacity='1' result='grey'/>
	  <feComposite in='SourceGraphic' in2='grey' operator='atop'/>
	</filter>
</defs>
<g fill="none" color="#FFFFFF" stroke="black" stroke-width="1.00" stroke-linecap="butt" stroke-linejoin="miter">
</g>
<g fill="none" color="black" stroke="currentColor" stroke-width="1.00" stroke-linecap="butt" stroke-linejoin="miter">
	<path stroke='black'  d='M62.2,419.2 L71.2,419.2 M615.0,419.2 L606.0,419.2  '/>	<g transform="translate(53.9,423.1)" stroke="none" fill="black" font-family="Arial" font-size="12.00"  text-anchor="end">
		<text><tspan font-family="Arial" > 0.05</tspan></text>
	</g>
</g>
<g fill="none" color="black" stroke="currentColor" stroke-width="1.00" stroke-linecap="butt" stroke-linejoin="miter">
	<path stroke='black'  d='M62.2,335.5 L71.2,335.5 M615.0,335.5 L606.0,335.5  '/>	<g transform="translate(53.9,339.4)" stroke="none" fill="black" font-family="Arial" font-size="12.00"  text-anchor="end">
		<text><tspan font-family="Arial" > 0.1</tspan></text>
	</g>
</g>
<g fill="none" color="black" stroke="currentColor" stroke-width="1.00" stroke-linecap="butt" stroke-linejoin="miter">
	<path stroke='black'  d='M62.2,251.9 L71.2,251.9 M615.0,251.9 L606.0,251.9  '/>	<g transform="translate(53.9,255.8)" stroke="none" fill="black" font-family="Arial" font-size="12.00"  text-anchor="end">
		<text><tspan font-family="Arial" > 0.15</tspan></text>
	</g>
</g>
<g fill="none" color="black" stroke="currentColor" stroke-width="1.00" stroke-linecap="butt" stroke-linejoin="miter">
	<path stroke='black'  d='M62.2,168.2 L71.2,168.2 M615.0,168.2 L606.0,168.2  '/>	<g transform="translate(53.9,172.1)" stroke="none" fill="black" font-family="Arial" font-size="12.00"  text-anchor="end">
		<text><tspan font-family="Arial" > 0.2</tspan></text>
	</g>
</g>
<g fill="none" color="black" stroke="currentColor" stroke-width="1.00" stroke-linecap="butt" stroke-linejoin="miter">
	<path stroke='black'  d='M62.2,84.6 L71.2,84.6 M615.0,84.6 L606.0,84.6  '/>	<g transform="translate(53.9,88.5)" stroke="none" fill="black" font-family="Arial" font-size="12.00"  text-anchor="end">
		<text><tspan font-family="Arial" > 0.25</tspan></text>
	</g>
</g>
<g fill="none" color="black" stroke="currentColor" stroke-width="1.00" stroke-linecap="butt" stroke-linejoin="miter">
	<path stroke='black'  d='M62.2,446.0 L62.2,437.0 M62.2,18.1 L62.2,27.1  '/>	<g transform="translate(62.2,467.9)" stroke="none" fill="black" font-family="Arial" font-size="12.00"  text-anchor="middle">
		<text><tspan font-family="Arial" > 0</tspan></text>
	</g>
</g>
<g fill="none" color="black" stroke="currentColor" stroke-width="1.00" stroke-linecap="butt" stroke-linejoin="miter">
	<path stroke='black'  d='M118.0,446.0 L118.0,437.0 M118.0,18.1 L118.0,27.1  '/>	<g transform="translate(118.0,467.9)" stroke="none" fill="black" font-family="Arial" font-size="12.00"  text-anchor="middle">
		<text><tspan font-family="Arial" > 10</tspan></text>
	</g>
</g>
<g fill="none" color="black" stroke="currentColor" stroke-width="1.00" stroke-linecap="butt" stroke-linejoin="miter">
	<path stroke='black'  d='M173.9,446.0 L173.9,437.0 M173.9,18.1 L173.9,27.1  '/>	<g transform="translate(173.9,467.9)" stroke="none" fill="black" font-family="Arial" font-size="12.00"  text-anchor="middle">
		<text><tspan font-family="Arial" > 20</tspan></text>
	</g>
</g>
<g fill="none" color="black" stroke="currentColor" stroke-width="1.00" stroke-linecap="butt" stroke-linejoin="miter">
	<path stroke='black'  d='M229.7,446.0 L229.7,437.0 M229.7,18.1 L229.7,27.1  '/>	<g transform="translate(229.7,467.9)" stroke="none" fill="black" font-family="Arial" font-size="12.00"  text-anchor="middle">
		<text><tspan font-family="Arial" > 30</tspan></text>
	</g>
</g>
<g fill="none" color="black" stroke="currentColor" stroke-width="1.00" stroke-linecap="butt" stroke-linejoin="miter">
	<path stroke='black'  d='M285.6,446.0 L285.6,437.0 M285.6,18.1 L285.6,27.1  '/>	<g transform="translate(285.6,467.9)" stroke="none" fill="black" font-family="Arial" font-size="12.00"  text-anchor="middle">
		<text><tspan font-family="Arial" > 40</tspan></text>
	</g>
</g>
<g fill="none" color="black" stroke="currentColor" stroke-width="1.00" stroke-linecap="butt" stroke-linejoin="miter">
	<path stroke='black'  d='M341.4,446.0 L341.4,437.0 M341.4,18.1 L341.4,27.1  '/>	<g transform="translate(341.4,467.9)" stroke="none" fill="black" font-family="Arial" font-size="12.00"  text-anchor="middle">
		<text><tspan font-family="Arial" > 50</tspan></text>
	</g>
</g>
<g fill="none" color="black" stroke="currentColor" stroke-width="1.00" stroke-linecap="butt" stroke-linejoin="miter">
	<path stroke='black'  d='M397.2,446.0 L397.2,437.0 M397.2,18.1 L397.2,27.1  '/>	<g transform="translate(397.2,467.9)" stroke="none" fill="black" font-family="Arial" font-size="12.00"  text-anchor="middle">
		<text><tspan font-family="Arial" > 60</tspan></text>
	</g>
</g>
<g fill="none" color="black" stroke="currentColor" stroke-width="1.00" stroke-linecap="butt" stroke-linejoin="miter">
	<path stroke='black'  d='M453.1,446.0 L453.1,437.0 M453.1,18.1 L453.1,27.1  '/>	<g transform="translate(453.1,467.9)" stroke="none" fill="black" font-family="Arial" font-size="12.00"  text-anchor="middle">
		<text><tspan font-family="Arial" > 70</tspan></text>
	</g>
</g>
<g fill="none" color="black" stroke="currentColor" stroke-width="1.00" stroke-linecap="butt" stroke-linejoin="miter">
	<path stroke='black'  d='M508.9,446.0 L508.9,437.0 M508.9,18.1 L508.9,27.1  '/>	<g transform="translate(508.9,467.9)" stroke="none" fill="black" font-family="Arial" font-size="12.00"  text-anchor="middle">
		<text><tspan font-family="Arial" > 80</tspan></text>
	</g>
</g>
<g fill="none" color="black" stroke="currentColor" stroke-width="1.00" stroke-linecap="butt" stroke-linejoin="miter">
	<path stroke='black'  d='M564.7,446.0 L564.7,437.0 M564.7,18.1 L564.7,27.1  '/>	<g transform="translate(564.7,467.9)" stroke="none" fill="black" font-family="Arial" font-size="12.00"  text-anchor="middle">
		<text><tspan font-family="Arial" > 90</tspan></text>
	</g>
</g>
<g fill="none" color="black" stroke="currentColor" stroke-width="1.00" stroke-linecap="butt" stroke-linejoin="miter">
</g>
<g fill="none" color="black" stroke="currentColor" stroke-width="1.00" stroke-linecap="butt" stroke-linejoin="miter">
	<path stroke='black'  d='M62.2,18.1 L62.2,446.0 L615.0,446.0 L615.0,18.1 L62.2,18.1 Z  '/></g>
<g fill="none" color="black" stroke="currentColor" stroke-width="1.00" stroke-linecap="butt" stroke-linejoin="miter">
</g>
	<g id="gnuplot_plot_1" ><title>pages+cached+noadtech</title>
<g fill="none" color="black" stroke="currentColor" stroke-width="1.00" stroke-linecap="butt" stroke-linejoin="miter">
	<g transform="translate(279.8,485.9)" stroke="none" fill="black" font-family="Arial" font-size="12.00"  text-anchor="end">
		<text><tspan font-family="Arial" >pages+cached+noadtech</tspan></text>
	</g>
</g>
<g fill="none" color="black" stroke="currentColor" stroke-width="1.00" stroke-linecap="butt" stroke-linejoin="miter">
	<path stroke='rgb(148,   0, 211)'  d='M288.1,482.0 L330.3,482.0 M62.2,366.3 L67.8,400.5 L73.4,407.2 L79.0,387.9 L84.5,397.4 L90.1,369.0
		L95.7,400.0 L101.3,424.2 L106.9,416.2 L112.5,380.9 L118.0,375.4 L123.6,394.9 L129.2,403.0 L134.8,374.4
		L140.4,389.4 L146.0,346.9 L151.5,334.2 L157.1,398.5 L162.7,365.2 L168.3,405.3 L173.9,388.2 L179.5,404.3
		L185.0,321.3 L190.6,376.7 L196.2,329.5 L201.8,337.0 L207.4,402.5 L213.0,393.3 L218.5,388.6 L224.1,325.5
		L229.7,387.1 L235.3,392.9 L240.9,379.2 L246.5,379.0 L252.1,385.4 L257.6,366.7 L263.2,388.7 L268.8,381.9
		L274.4,421.5 L280.0,408.7 L285.6,391.4 L291.1,407.5 L296.7,385.9 L302.3,290.7 L307.9,409.0 L313.5,411.7
		L319.1,400.3 L324.6,378.2 L330.2,367.8 L335.8,388.9 L341.4,334.0 L347.0,400.0 L352.6,392.4 L358.1,297.9
		L363.7,428.2 L369.3,416.0 L374.9,388.9 L380.5,362.0 L386.1,395.3 L391.6,394.1 L397.2,436.8 L402.8,410.0
		L408.4,244.3 L414.0,415.4 L419.6,400.0 L425.1,253.6 L430.7,414.2 L436.3,406.1 L441.9,392.1 L447.5,422.9
		L453.1,386.9 L458.7,386.4 L464.2,392.9 L469.8,224.1 L475.4,394.3 L481.0,371.8 L486.6,375.0 L492.2,391.4
		L497.7,340.1 L503.3,392.6 L508.9,373.2 L514.5,349.1 L520.1,397.4 L525.7,376.4 L531.2,404.6 L536.8,243.3
		L542.4,357.0 L548.0,392.3 L553.6,384.1 L559.2,403.6 L564.7,388.1 L570.3,372.3 L575.9,400.8 L581.5,405.5
		L587.1,403.1 L592.7,242.0 L598.2,347.3 L603.8,276.5 L609.4,398.1 L615.0,409.3  '/></g>
	</g>
	<g id="gnuplot_plot_2" ><title>pages+cached+noexternal</title>
<g fill="none" color="black" stroke="currentColor" stroke-width="1.00" stroke-linecap="butt" stroke-linejoin="miter">
	<g transform="translate(529.5,485.9)" stroke="none" fill="black" font-family="Arial" font-size="12.00"  text-anchor="end">
		<text><tspan font-family="Arial" >pages+cached+noexternal</tspan></text>
	</g>
</g>
<g fill="none" color="black" stroke="currentColor" stroke-width="1.00" stroke-linecap="butt" stroke-linejoin="miter">
	<path stroke='rgb(  0, 158, 115)'  d='M537.8,482.0 L580.0,482.0 M62.2,395.6 L67.8,356.6 L73.4,246.9 L79.0,397.6 L84.5,374.4 L90.1,378.9
		L95.7,182.3 L101.3,436.1 L106.9,419.7 L112.5,375.9 L118.0,437.8 L123.6,368.5 L129.2,396.6 L134.8,384.4
		L140.4,390.1 L146.0,379.2 L151.5,418.4 L157.1,394.6 L162.7,413.5 L168.3,359.6 L173.9,379.5 L179.5,355.1
		L185.0,389.9 L190.6,362.1 L196.2,393.4 L201.8,381.9 L207.4,370.3 L213.0,399.1 L218.5,393.9 L224.1,381.7
		L229.7,390.1 L235.3,376.5 L240.9,275.8 L246.5,257.2 L252.1,402.5 L257.6,390.6 L263.2,418.9 L268.8,384.4
		L274.4,403.1 L280.0,389.6 L285.6,292.7 L291.1,380.4 L296.7,384.9 L302.3,26.3 L307.9,416.9 L313.5,393.3
		L319.1,382.2 L324.6,401.0 L330.2,377.2 L335.8,396.3 L341.4,412.2 L347.0,391.9 L352.6,400.3 L358.1,383.4
		L363.7,393.1 L369.3,414.7 L374.9,244.2 L380.5,387.2 L386.1,389.2 L391.6,406.6 L397.2,393.9 L402.8,392.8
		L408.4,398.6 L414.0,389.8 L419.6,401.6 L425.1,416.4 L430.7,303.4 L436.3,403.3 L441.9,381.6 L447.5,392.3
		L453.1,384.2 L458.7,396.3 L464.2,396.8 L469.8,403.3 L475.4,392.6 L481.0,348.4 L486.6,269.4 L492.2,416.0
		L497.7,370.7 L503.3,418.2 L508.9,386.2 L514.5,190.5 L520.1,345.7 L525.7,416.2 L531.2,387.1 L536.8,382.7
		L542.4,387.1 L548.0,377.4 L553.6,379.9 L559.2,387.1 L564.7,378.5 L570.3,394.4 L575.9,404.3 L581.5,410.7
		L587.1,218.6 L592.7,352.1 L598.2,393.4 L603.8,407.0 L609.4,380.4 L615.0,376.9  '/></g>
	</g>
<g fill="none" color="#FFFFFF" stroke="rgb(  0, 158, 115)" stroke-width="2.00" stroke-linecap="butt" stroke-linejoin="miter">
</g>
<g fill="none" color="black" stroke="currentColor" stroke-width="2.00" stroke-linecap="butt" stroke-linejoin="miter">
</g>
<g fill="none" color="black" stroke="black" stroke-width="1.00" stroke-linecap="butt" stroke-linejoin="miter">
</g>
<g fill="none" color="black" stroke="currentColor" stroke-width="1.00" stroke-linecap="butt" stroke-linejoin="miter">
	<path stroke='black'  d='M62.2,18.1 L62.2,446.0 L615.0,446.0 L615.0,18.1 L62.2,18.1 Z  '/></g>
<g fill="none" color="black" stroke="currentColor" stroke-width="1.00" stroke-linecap="butt" stroke-linejoin="miter">
</g>
</g>
</svg>
